svgs/light/comment-captions.svg

<svg xmlns="http://www.w3.org/2000/svg" viewBox="0 0 512 512"><!-- Font Awesome Pro 6.0.0-alpha2 by @fontawesome - https://fontawesome.com License - https://fontawesome.com/license (Commercial License) --><path d="M256.034 32C114.678 32 0.067 125.125 0.067 240C0.067 287.625 19.94 331.25 52.936 366.25C38.063 405.75 7.067 439.125 6.567 439.5C-0.056 446.5 -1.806 456.75 1.942 465.5C5.817 474.25 14.315 480 23.94 480C85.432 480 133.924 454.25 163.045 433.75C192.041 442.75 223.287 448 256.034 448C397.389 448 512 354.875 512 240S397.389 32 256.034 32ZM256.034 416C227.787 416 199.791 411.75 172.795 403.25C163.278 400.182 152.871 401.789 144.725 407.588L144.674 407.625C121.676 423.875 86.182 442.875 42.061 447.25C54.061 432.125 71.809 406.75 82.807 377.625L82.936 377.285C87.219 366.014 84.725 353.287 76.506 344.463L76.307 344.25C47.311 313.75 32.063 277.625 32.063 240C32.063 143 132.549 64 256.034 64S480.004 143 480.004 240S379.518 416 256.034 416ZM224 240C224 231.156 216.844 224 208 224H80C71.157 224 64 231.156 64 240S71.157 256 80 256H208C216.844 256 224 248.844 224 240ZM304 288H208C199.157 288 192 295.156 192 304S199.157 320 208 320H304C312.844 320 320 312.844 320 304S312.844 288 304 288ZM144 288H112C103.157 288 96 295.156 96 304S103.157 320 112 320H144C152.844 320 160 312.844 160 304S152.844 288 144 288ZM400 288H368C359.157 288 352 295.156 352 304S359.157 320 368 320H400C408.844 320 416 312.844 416 304S408.844 288 400 288ZM432 224H272C263.157 224 256 231.156 256 240S263.157 256 272 256H432C440.844 256 448 248.844 448 240S440.844 224 432 224Z"/></svg>

<svg xmlns="http://www.w3.org/2000/svg" viewBox="0 0 512 512"><!--! Font Awesome Pro 6.3.0 by @fontawesome - https://fontawesome.com License - https://fontawesome.com/license (Commercial License) Copyright 2023 Fonticons, Inc. --><path d="M256 31.1c-141.4 0-255.1 93.13-255.1 208c0 47.62 19.91 91.25 52.91 126.3c-14.87 39.5-45.87 72.88-46.37 73.25c-6.623 7-8.373 17.25-4.625 26C5.817 474.3 14.38 480 24 480c61.49 0 109.1-25.75 139.1-46.25c28.1 9 60.16 14.25 92.91 14.25c141.4 0 255.1-93.13 255.1-207.1S397.4 31.1 256 31.1zM256 416c-28.25 0-56.24-4.25-83.24-12.75c-9.518-3.068-19.92-1.461-28.07 4.338c-22.1 16.25-58.54 35.29-102.7 39.66c12-15.12 29.75-40.5 40.75-69.63l.1289-.3398c4.283-11.27 1.789-23.1-6.43-32.82C47.51 313.1 32.06 277.6 32.06 240c0-97 100.5-176 223.1-176s223.1 79 223.1 176S379.5 416 256 416zM224 240C224 231.2 216.8 224 208 224h-128C71.16 224 64 231.2 64 240S71.16 256 80 256h128C216.8 256 224 248.8 224 240zM304 288h-96C199.2 288 192 295.2 192 304S199.2 320 208 320h96c8.844 0 16-7.156 16-16S312.8 288 304 288zM144 288h-32C103.2 288 96 295.2 96 304S103.2 320 112 320h32C152.8 320 160 312.8 160 304S152.8 288 144 288zM400 288h-32C359.2 288 352 295.2 352 304s7.156 16 16 16h32c8.844 0 16-7.156 16-16S408.8 288 400 288zM432 224h-160C263.2 224 256 231.2 256 240S263.2 256 272 256h160C440.8 256 448 248.8 448 240S440.8 224 432 224z"/></svg>
